public/images/logos/notion.svg

<svg xmlns="http://www.w3.org/2000/svg" viewBox="0 0 50 50" width="50px" fill="#ffffff"
  height="50px">
  <path
    d="M44.62 13.13c-.23-.21-.52-.33-.83-.33-.02 0-.05.01-.08.01l-29.86 1.92c-.63.04-1.13.58-1.13 1.21v28.75c0 .34.14.65.38.88.25.23.57.35.91.33l29.86-1.93C44.51 43.93 45 43.4 45 42.76V14.02C45 13.68 44.87 13.36 44.62 13.13zM38.11 20.92c-.6.19-.79.2-.79.2v17.24c-1.02.55-1.86.81-2.74.81-1.07 0-1.68-.24-2.5-1.5-1.74-2.69-7.41-11.81-7.41-11.81v11.45l2.23.47c0 0-.06 1.3-2.01 1.45-1.71.13-5.44.32-5.44.32 0-.47.1-1.12.84-1.31.35-.09 1.4-.37 1.4-.37V22.42h-2.24c0-1.03.3-1.83 1.38-1.91l5.79-.33 7.73 11.92V21.49l-2.24-.19c0-.93.9-1.5 1.67-1.58l5.04-.28C38.82 20.09 38.79 20.7 38.11 20.92zM4.98 8.54l5.74 5.74v29.54L5.6 37.66c-.41-.58-.62-1.25-.62-1.96V8.54zM42.72 10.91l-29.06 1.83c-.99.07-1.95-.3-2.65-.99L6.24 6.97l27.19-1.89c.81-.07 1.62.17 2.28.66L42.72 10.91z" />
</svg>

<svg width="50" height="50" viewBox="0 0 50 50" fill="none" xmlns="http://www.w3.org/2000/svg">
<path d="M44.62 13.13C44.39 12.92 44.1 12.8 43.79 12.8C43.77 12.8 43.74 12.81 43.71 12.81L13.85 14.73C13.22 14.77 12.72 15.31 12.72 15.94V44.69C12.72 45.03 12.86 45.34 13.1 45.57C13.35 45.8 13.67 45.92 14.01 45.9L43.87 43.97C44.51 43.93 45 43.4 45 42.76V14.02C45 13.68 44.87 13.36 44.62 13.13ZM38.11 20.92C37.51 21.11 37.32 21.12 37.32 21.12V38.36C36.3 38.91 35.46 39.17 34.58 39.17C33.51 39.17 32.9 38.93 32.08 37.67C30.34 34.98 24.67 25.86 24.67 25.86V37.31L26.9 37.78C26.9 37.78 26.84 39.08 24.89 39.23C23.18 39.36 19.45 39.55 19.45 39.55C19.45 39.08 19.55 38.43 20.29 38.24C20.64 38.15 21.69 37.87 21.69 37.87V22.42H19.45C19.45 21.39 19.75 20.59 20.83 20.51L26.62 20.18L34.35 32.1V21.49L32.11 21.3C32.11 20.37 33.01 19.8 33.78 19.72L38.82 19.44C38.82 20.09 38.79 20.7 38.11 20.92ZM4.97998 8.54L10.72 14.28V43.82L5.59998 37.66C5.18998 37.08 4.97998 36.41 4.97998 35.7V8.54ZM42.72 10.91L13.66 12.74C12.67 12.81 11.71 12.44 11.01 11.75L6.23998 6.97L33.43 5.08C34.24 5.01 35.05 5.25 35.71 5.74L42.72 10.91Z" fill="white"/>
</svg>
